X:1
T:Die Alpenreise
T: Hans Georg Nägeli 
T:Johann Rudolf Wyß
T:Die Alpenreise
T:CPDL - Creative Commons Attribution Non Commercial 3.0
T:CPDL - Creative Commons Attribution Non Commercial 3.0
T:CPDL - Creative Commons Attribution Non Commercial 3.0
C:Hans Georg Nägeli
Z:Johann Rudolf Wyß
Z:CPDL - Creative Commons Attribution Non Commercial 3.0
%%score [ ( 1 2 ) ( 3 4 ) ]
L:1/8
Q:1/4=100
M:6/8
K:C
V:1 treble-8 nm="Tenor"
V:2 treble-8 
V:3 bass nm="Bass"
V:4 bass 
V:1
"^Allegro"!f! c2 C/D/ E2 F | GAB c3 | d2 d e2 c | d2 e d3 | g2 d d2 B | cde A3 | G2 A B2 c | %7
w: 1.~Auf! den * Berg- stock|in _ die Hand,|lus- tig auf in's|Al- pen- land!|nicht ge- schont die|Na- * gel- schuh,|frisch auf Berg und|
w: 2.~Hui, wie * geht's im|Flu- * ge fort!|schau zu- rück: ein|Hü- gel dort|uns- re teu- re|Stadt, * mit Gunst,|ist für- wahr nur|
w: 3.~Ein- ge- * lenkt nun|in _ das Tal!|rauh schon wird der|Pfad und schmal.|Sach- ter jetzt und|fes- * ter jetzt|Fuß und Berg- stock|
w: 4.~Nie ver- * sie- gend|Was- * ser saust|und La- wi- nen-|don- ner braust;|Läm- mer wei- den|hier _ im Klee,|drü- ben star- ret|
 de^f g3 |!pp! Bcd G2 G | cde A3 | Bcd G2 G | cde A3 | e2 c A2 G | ^FGA D3 | GAB ABc | ^FGA G3 | %16
w: Fel- * sen zu!|Fah- * re wohl, du|schö- * ne Stadt!|bin _ von Her- zen|dei- * ner satt;|treibst mir e- ben|gar _ zu viel|Tän- * de- lei _ und|Pos- * sen- spiel.|
w: blau- * er Dunst.|Doch * nun vor- wärts|auf- * ge- sehn!|wie _ so mäch- tig,|wie _ so schön|aus der grau- en|Ne- * bel Meer|steigt * der Ber- * ge|Rie- * sen- heer!|
w: an- * ge- setzt!|Ü- * ber Wol- ken|spros- * sen hier|tau- * send ed- ler|Blu- * men Zier,|und bal- sa- misch|füllt _ die Luft|ih- * res Kel- * ches|sü- * ßer Duft.|
w: Eis _ und Schnee.|Mu- * tig, mu- tig!|fe- * der- leicht|wird _ des Ber- ges|Haupt * er- reicht,|denn, was Leib und|See- * le drückt,|ist _ ins tie- * fe|Tal _ ent- rückt.|
!f! d2 d e2 e | =fgf e3 | d2 d e2 e | fgf e3 | E2 F G2 A | Bcd e3 | d2 d e2 f | e3 d3 | c3- c2 z |] %25
w: O wie Got- tes|frei- * e Welt|mei- nen Au- gen|wohl- * ge- fällt!|ü- ber- all auf|Wald * und Flur|ei- nes gu- ten|Va- ters|Spur. _|
w: Nicht zu stolz, ihr|Gro- * ßen, ihr!|traun, vor A- bend|tan- * zen wir,|ständ' er zwei- mal|gleich * so hoch,|la- chend auf dem|Kopf euch|doch. _|
w: Lass dir Zeit, mein|freu- * dig Herz;|blick hin- auf und|nie- * der- wärts,|sieh die Wun- der|Got- * tes an|auf der wei- ten|Al- pen-|bahn. _|
w: O, dort o- ben,|wel- * che Lust|wird sich re- gen|in _ der Brust!|Al- pen- stei- gen|ist _ von Art|ei- ne hal- be|Him- mel-|fahrt. _|
V:2
 c2 C/D/ E2 F | GAB c3 | B2 B c2 c | B2 c B3 | d2 B B2 B | ABc ^F3 | G2 A B2 c | de^f g3 | %8
 GAB G2 G | ABc ^F3 | GAB G2 G | ABc ^F3 | G2 E E2 E | ^FEF D3 | G^FG A^GA | ^FEF G3 | B2 B c2 c | %17
 ded c3 | B2 B c2 c | ded c3 | E2 F G2 A | Bcd e3 | A2 B c2 d | c3 B3 | c3- c2 x |] %25
V:3
!f! C,2 C,/D,/ E,2 F, | G,A,B, C3 | G,2 G, G,2 G, | G,2 G, G,3 | B,2 G, G,2 G, | E,D,C, D,3 | %6
 B,,2 D, G,2 A, | B,CD G,3 |!pp! D,2 D, E,^F,G, | E,2 E, D,3 | D,2 D, E,^F,G, | E,2 E, D,3 | %12
 E,^F,G, A,2 E, | D,2 D, D,3 | D,C,B,, E,D,C, | D,2 D, G,,3 |!f! G,2 G, G,A,G, | G,2 G, G,3 | %18
 G,2 G, G,A,G, | G,2 G, G,3 | C,2 D, E,2 F, | G,A,B, C3 | A,2 A, G,2 F, | G,3 G,3 | E,3- E,2 z |] %25
V:4
 C,2 C,/D,/ E,2 F, | G,A,B, C3 | G,2 G, C,2 E, | G,2 G, G,3 | G,2 G,, G,,2 G,, | C,B,,A,, D,3 | %6
 B,,2 D, G,2 A, | B,CD G,3 | G,,2 G,, C,D,E, | A,,2 A,, D,3 | G,,2 G,, C,D,E, | A,,2 A,, D,3 | %12
 C,2 C, C,2 ^C, | D,2 D, D,3 | B,,A,,G,, C,B,,A,, | D,2 D, G,,3 | G,,2 G,, C,2 C, | B,,2 B,, C,3 | %18
 G,,2 G,, C,2 C, | B,,2 B,, C,3 | C,2 D, E,2 F, | G,A,B, C3 | F,2 F, E,2 D, | G,3 G,3 | %24
 C,3- C,2 x |] %25

